X:12
T:Bug ?
S:hnj0
M:6/8
K:G
AAA AAA AAA |1 BBB BBB:|2 CCC CCC||
|:EEE EEE|1 BBB BBB:|2 GGG GGG||
|:FFF FFF:|

